X:323
M:C
L:1/8
Q:1/4=140
K:B_
d/c/|~B<B,B D/E/ F<B,B, d/c/|~B<B,B, D/E/ F2 F>d|~B<B, B,>B F<B, F>D|
~B>FB>d ~B>F G/F/E/D/|CC E>F G2G||d/c/|~B>F e/d/c/B/ F>BD>B|
~B>f e/d/c/B/ F>BD>B|B,>f e/d/c/B/ g2 ga/b/|f>b d>f B>d D>B|

